!!!COM: Jules Massenet
!!!CNT: Francais
!!!TXO: Francais
!!!OTL: "Ce sont les petits que je veux chanter"
!!!LYR: Grieumard
!!!OPR:
!!!OPS: Op.
!!!ONM: No.
!!!ENC: Emily Thomas
!!!YOR: CD Sheet Music French Art Songs, The Ultimate Collection
!!!YOR: CD Sheet Music, LLC 2003
!!!ODT: 1899/
!!NB: Vocal melody and text encoded.
**kern	**silbe
=1	=1
*clefG2	*
*k[f#c#g#]	*
*M3/4	*
*MM[Allegretto.]	*
2.r	.
=2	=2
2.r	.
=3	=3
{8a	{Ce
8b	sont
8cc#	les
8b	pe-
4a	-tits
=4	=4
8a	aue
8b	je
8cc#	veux
8b	chan-
4a}	-ter,}
=5	=5
{8ee	{Viens,
8r	.
[4dd	Jean,
8dd]}	|}
8r	.
=6	=6
{8cc#	{Viens
8cc#	aus
4cc#	si,
8cc#	dou-
8dd	-ce
=7	=7
8ee	Ma-
8dd	-de-
4cc#	-lei-
4b}	-ne!}
=8	=8
{8b	{je
8cc#	con-
8dd	-nais
8cc#	Per-
4b	-rault
=9	=9
8b	et
8cc#	vais
8dd	vous
8cc#	con-
[4b	-ter
=10	=10
4b]}	|}
{8ff#	{Une
8ee	his-
8dd	-ti-
8cc#	-ri-
=11	=11
2.ee}	-ette}
=12	=12
4r	.
{8ee	{et
8dd	tout
8cc#	d'une
8dd	ha-
=13	=13
2.cc#	-lei-
=14	=14
2.b	|
=15	=15
2a}	-ne.}
4r	.
=16	=16
{8a	{Ce
8b	sont
8cc#	les
8b	che/-
4a	-ris
=17	=17
8a	qu'il
8b	faut
8cc#	a-
8b	-mu-
4a}	-ser,}
=18	=18
{8ee	{Viens,
8r	.
[4dd	Jean!
8dd]}	|}
8r	.
=19	=19
{8cc#	{Viens
8cc#	aus-
4cc#	-si,
8cc#	gran-
8dd	-de,
=20	=20
8ee	ma-
8dd	-de-
4cc#	-lei-
4b}	-ne!}
=21	=21
{8b	{Dans
8cc#	vos
8dd	blonds
8cc#	che-
4b	-veux
=22	=22
8b	je
8cc#	vais
8dd	de/-
8cc#	-po-
[4b	-ser
=23	=23
4b]}	|}
{8ff#	{Des
8ee	oeil-
8dd	-lets,
8cc#	des
=24	=24
2.ee}	lys.}
=25	=25
4r	.
{8ee	{de
8dd	la
8cc#	mar-
8dd	-jo0
=26	=26
2.cc#	-lai-
=27	=27
2.b	|
=28	=28
2a}	-ne.}
4r	.
=29	=29
{8a	{Ce
8b	sont
8cc#	les
8b	en-
4a	-fants
=30	=30
8a	que
8b	je
8cc#	veux
8b	ai-
4a}	-mer,}
=31	=31
{8ee	{Viens,
8r	.
[4dd	Jean!
8dd]}	|}
8r	.
=32	=32
{8cc#	{Viens
8cc#	aus-
4cc#	-si,
8cc#	vi-
8dd	-ve
=33	=33
8ee	Ma-
8dd	-de-
4cc#	-lei-
4b}	-ne!}
=34	=34
{8b	{En
8cc#	vous
8dd	em-
8cc#	-bras-
4b	-sant
=35	=35
8b	je
8cc#	vou-
8dd	-drais
8cc#	cal-
[4b	-mer
=36	=36
4b]}	|}
{8ff#	{Vos
8ee	pe-
8dd	-tits
8cc#	sou-
=37	=37
2.ee}	-cis,}
=38	=38
4r	.
{8ee	{vo-
8dd	-tre
8cc#	gran-
8dd	-de
=39	=39
2.cc#	pei-
=40	=40
2.b	|
=41	=41
2a}	-ne.}
4r	.
==	==
*-	*-
